!!!COM:	L van Beethoven
!!!OTL:	String Quartet Op18 No3
**kern	**dynam
*I"Viola	*
*clefC3	*
*k[f#c#]	*
*D:	*
*M2/2	*
=1	=1
!LO:TX:a:B:t=Allegro	!
1r	.
=2	=2
1r	.
=3!|:	=3!|:
[1A	p
=4	=4
[1A	.
=5	=5
1A	.
=6	=6
[1d	.
=7	=7
1d	.
=8	=8
1c#	.
=9	=9
(1c#	.
=10	=10
4d)	.
4r	.
2r	.
=11	=11
(1A	p
=12	=12
[1g)	.
=13	=13
!LO:TX:t=cresc.	!
8gL	.
(8f#	<
8e	.
8d	.
8c#L	.
8d	.
8f#	.
8d)	.
=14	=14
(1c#	.
=15	=15
1d	.
=16	=16
1a)	f
=17	=17
4g	p
4r	.
2r	.
=18	=18
1r	.
=19	=19
1r	.
=20	=20
2r	.
4r	.
(4B	.
=21	=21
4c)	.
4C	.
4r	.
(4c	.
=22	=22
4d)	.
4D	.
4r	.
4d	.
=23	=23
!LO:TX:t=cresc.	!
[1e	<
=24	=24
2e	.
[2e	.
=25	=25
4e	.
2A	.
(4A	.
=26	=26
4G)	p
[4G	.
4G	.
(4G	.
=27	=27
4F#)	.
4r	.
2r	.
=28	=28
1r	.
=29	=29
1r	>
=30	=30
1r	]
=31	=31
(8AL	<
8d	.
8f#	.
8d	.
8AL	.
8d	.
8f#	.
8d)	.
=32	=32
(8AL	>
8d	.
8f#	.
8d	.
8AL	.
8d	.
8f#	.
8d)	]
=33	=33
(8BL	.
8d	.
8g	.
8d	.
8BL	.
8d	.
8g	.
8d)	.
=34	=34
(8AL	.
8e	.
8g	.
8e	.
8aL	.
8e	.
8a	.
8e)	.
=35	=35
4a	.
4r	.
2r	.
=36	=36
4r	.
(4c#	.
4d)	.
4r	.
=37	=37
4r	.
(4e	.
4d)	.
4d	.
=38	=38
4r	.
4d	.
4r	.
4c#	.
=39	=39
4r	.
4d	.
2r	.
=40	=40
4r	.
(4A#	.
4B)	.
4r	.
=41	=41
4r	.
(4c#	.
4B)	.
4B	.
=42	=42
4r	.
4B	.
4r	.
4A#	.
=43	=43
4r	.
4B	.
8eL	.
8f#	.
8g#	.
8a	.
=44	=44
(8eL	.
8f)	.
8r	.
8f	.
(8G#L	.
8e)	.
8r	.
8e	.
=45	=45
(4d	.
4c)	.
4F	.
4f	sf
=46	=46
4r	.
4f	sf
4r	.
4f	sf
=47	=47
4e	.
4r	.
4r	.
4d#	sf
=48	=48
4r	.
4d#	sf
4r	.
4d#	sf
=49	=49
4e	.
4r	.
(12cL	.
12A	.
12B	.
12cL	sf
12B	.
12A)	.
=50	=50
(12cL	.
12A	.
12B	.
12cL	sf
12B	.
12A)	.
(12cL	.
12A	.
12B	.
12cL	sf
12B	.
12A)	.
=51	=51
4G#	f
4r	.
2r	.
=52	=52
1r	.
=53	=53
1r	.
=54	=54
4r	.
4e	p
4e	.
4e	.
=55	=55
!LO:TX:t=cresc.	!
2e	<
2e	.
=56	=56
2f#	.
2d	.
=57	=57
4c#	p
4r	.
2r	.
=58	=58
2.E	.
8r	.
(16E	.
16F#)	.
=59	=59
2.G#	.
8r	.
(16G#	.
16A)	.
=60	=60
2.B	.
8r	.
(16B	.
16c#)	.
=61	=61
!LO:TX:t=decresc	!
4d	>
4d	.
4d	.
4d	.
=62	=62
2.d	.
8r	.
(16g#	.
16a)	.
=63	=63
4b	.
4b	.
4b	.
4b	.
=64	=64
[1b	pp
=65	=65
[1b	.
=66	=66
[1b	.
=67	=67
!LO:TX:t=cresc.	!
1b	.
=68	=68
4g	p
2g	sf
4g	.
=69	=69
4g	.
2g	sf
[4g	.
=70	=70
4g	.
[4g	.
4g	.
[4g	.
=71	=71
4g	.
[4g	.
4g	.
(4g	.
=72	=72
4e)	.
2e	sf
4e	.
=73	=73
4e	.
2e	sf
[4e	.
=74	=74
4e	.
(4e	.
4d)	.
(4d	.
=75	=75
4e)	.
[4e	.
4e	.
4e	.
=76	=76
2C#	.
4E	.
4A	.
=77	=77
2c#	.
2d	.
=78	=78
1e	sf
=79	=79
[1f#	sf
=80	=80
4f#	.
(4e	.
4b	.
4a	.
=81	=81
4g#	.
4f#	.
4e	.
4d)	.
=82	=82
4c#	ff
4E	.
4A	.
4c#	.
=83	=83
2e	.
2f#	.
=84	=84
1g	sf
=85	=85
1A#	sf
=86	=86
1B	sf
=87	=87
1f#	sf
=88	=88
[1a	sf
=89	=89
4b	.
4B	.
4B	.
4d	.
=90	=90
4c#	.
4r	.
4r	.
8r	.
(24A	p
24B	.
24c#	.
=91	=91
4d	.
4e	.
4f#	.
4e)	.
=92	=92
(2d	.
2G#	.
=93	=93
2B	.
2d)	.
=94	=94
4c#	.
4r	.
4r	.
8r	.
!LO:TX:t=cresc.	!
24A	<
24B	.
24c#	.
=95	=95
4d	.
4e	.
4f#	.
4e	.
=96	=96
2d	.
2G#	.
=97	=97
2B	.
2d	.
=98	=98
4c#	[
4r	.
4r	.
4B 4e	p
=99	=99
4c# 4e	.
4r	.
4r	.
4d 4e	.
=100	=100
4c# 4e	.
4r	.
4r	.
4B 4e	.
=101	=101
4c# 4e	.
4r	.
4r	.
4d 4e	.
=102	=102
8c#L	<
8e	.
!LO:TX:t=cresc.	!
8B	.
8e	.
8dL	.
8e	.
8d	.
8e	.
=103	=103
8c#L	.
8e	.
8B	.
8e	.
8dL	.
8e	.
8d	.
8e	.
=104	=104
4c#	f
4r	.
2r	.
=105	=105
4D	.
4r	.
2r	.
=106	=106
4d	f
4r	.
2r	.
=107	=107
4E	f
4r	.
2r	.
=108	=108
4e	p
4r	.
2r	.
=109	=109
1r	.
=110:|!	=110:|!
4e	p
4r	.
2r	.
=111	=111
1r	.
=112	=112
[1A	.
=113	=113
[1A	.
=114	=114
(2A	.
[2d)	.
=115	=115
[1d	.
=116	=116
(2d	.
2D)	.
=117	=117
(1C#	.
=118	=118
!LO:TX:t=cresc.	!
1D)	<
=119	=119
[1C	.
=120	=120
(2C	.
2A)	.
=121	=121
[1G	.
=122	=122
(2.G	f
8A	.
8B-)	.
=123	=123
(4A	.
4G	.
4F	.
4E-)	.
=124	=124
4D	.
4B-	p
4d	.
4r	.
=125	=125
4r	.
(4A	.
4B-)	.
4r	.
=126	=126
4r	.
(4E-	p
4D)	.
4B-	.
=127	=127
4r	.
4B-	.
4r	.
4A	.
=128	=128
4r	.
4B-	.
4r	.
(12f	.
12d	.
12B-)	.
=129	=129
2.F	.
4r	.
=130	=130
2r	.
4r	.
(12d	.
12B-	.
12G)	.
=131	=131
2.D	.
4r	.
=132	=132
2r	.
4r	.
4G	.
=133	=133
4r	.
4G	.
4r	.
4F#	.
=134	=134
4r	.
!LO:TX:t=cresc.	!
4G	<
8dL	.
8e	.
8f#	.
8g	.
=135	=135
(8AL	.
8e-)	.
8r	.
8e-	.
(8F#L	.
8d)	.
8r	.
8d	.
=136	=136
(8B-L	[
8d	.
8B-	.
8d	.
8B-L	.
8d	.
8B-	.
8d)	.
=137	=137
(8AL	.
8d	.
8A	.
8d	.
8AL	.
8d	.
8A	.
8d)	.
=138	=138
[1d	sf
=139	=139
4d	.
(4G#	.
4B	.
4d)	.
=140	=140
(8cL	.
8e	.
8c	.
8e	.
8cL	.
8e	.
8c	.
8e)	.
=141	=141
(8BL	.
8e	.
8B	.
8e	.
8BL	.
8e	.
8B	.
8e)	.
=142	=142
[1e	sf
=143	=143
4e	.
(4A#	.
4c#	.
4e)	.
=144	=144
4d	sf
4r	f
[2B [2d	f
=145	=145
2B 2d	.
[2B [2d	sf
=146	=146
2B 2d	.
[2B [2d	sf
=147	=147
2B 2d	.
[2B [2d	sf
=148	=148
2B 2d	.
[2c#	sf
=149	=149
2c#	.
[2c#	sf
=150	=150
2c#	.
[2A	sf
=151	=151
2A	.
2F#	.
=152	=152
4G#	.
4r	.
[2C# [2c#	sf
=153	=153
[1C# [1c#	.
=154	=154
4C# 4c#	.
4r	.
[2C# [2c#	.
=155	=155
1C# 1c#	.
=156	=156
12C#L 12c#	.
12C# 12c#	.
12C# 12c#	.
12C#L 12c#	.
12C# 12c#	.
12C# 12c#	.
12C#L 12c#	.
12C# 12c#	.
12C# 12c#	.
12C#L 12c#	.
12C# 12c#	.
12C# 12c#	.
=157	=157
12C#L 12c#	.
12C# 12c#	.
12C# 12c#	.
12C#L 12c#	.
12C# 12c#	.
12C# 12c#	.
12C#L 12c#	.
12C# 12c#	.
12C# 12c#	.
12C#L 12c#	.
12C# 12c#	.
12C# 12c#	.
=158	=158
[1C#	p
=159	=159
[1C#	>
=160	=160
[1C#	]
=161	=161
1C#	.
=162	=162
(2D	.
[2A)	.
=163	=163
[1A	.
=164	=164
[1A	.
=165	=165
(1B	.
=166	=166
1F#)	.
=167	=167
1E	.
=168	=168
(1C#	.
=169	=169
1D)	.
=170	=170
(1D	<
=171	=171
[1c)	.
=172	=172
!LO:TX:t=cresc.	!
8cL	.
(8B	.
8A	.
8G	.
8F#L	.
8G	.
8B	.
8G)	.
=173	=173
(1F#	.
=174	=174
1G)	.
=175	=175
1G#	sf
=176	=176
1E	p
=177	=177
1e	sf
=178	=178
1F#	p
=179	=179
1f#	sf
=180	=180
(2c#	p
!LO:TX:t=cresc.	!
2G)	<
=181	=181
(2A	.
2d)	.
=182	=182
(2B-	.
2g)	.
=183	=183
(2B	.
2f)	.
=184	=184
4e	p
4r	.
2r	.
=185	=185
1r	.
=186	=186
1r	.
=187	=187
1r	.
=188	=188
2c#	<
2d	.
=189	=189
2d	.
2c#	.
=190	=190
4d	p
4r	.
2r	.
=191	=191
2.A	.
8r	.
(16C#	.
16D)	.
=192	=192
2.E	.
8r	.
(16E	.
16F#)	.
=193	=193
2.G	.
8r	.
(16c#	.
16d)	.
=194	=194
!LO:TX:t=decresc.	!
4e	.
4e	.
4e	.
4e	.
=195	=195
2.e	.
8r	.
(16e	.
16f#)	.
=196	=196
4g	.
4g	.
4g	.
4g	.
=197	=197
[1g	pp
=198	=198
[1g	.
=199	=199
!LO:TX:t=cresc.	!
[1g	<
=200	=200
1g	.
=201	=201
4f	p
2c	sf
4c	.
=202	=202
4c	.
2c	sf
[4c	.
=203	=203
4c	.
[4c	.
4c	.
[4c	.
=204	=204
4c	.
[4c	.
4c	.
(4c	.
=205	=205
4d)	.
2A	sf
4A	.
=206	=206
4A	.
2A	sf
[4A	.
=207	=207
4A	.
[4d	.
4d	.
[4d	.
=208	=208
4d	.
(4d	.
4c#)	.
4c#	.
=209	=209
2D 2d	.
4D	.
4D	.
=210	=210
2F#	.
2G	.
=211	=211
1A	sf
=212	=212
[1B	sf
=213	=213
4B	.
!LO:TX:t=cresc.	!
(4A	.
4c#	<
4B	.
=214	=214
4A	.
4G	.
4F#	.
4E)	.
=215	=215
4D	ff
4F#	.
4A	.
4d	.
=216	=216
2f#	.
2g	.
=217	=217
1a	sf
=218	=218
1A	sf
=219	=219
1B	sf
=220	=220
1B	sf
=221	=221
4d	sf
4d	.
4d	.
4d	.
=222	=222
2.e	.
4g	.
=223	=223
4f#	.
4r	.
4r	.
8r	.
(24d	p
24e	.
24f#	.
=224	=224
4g	.
4a	.
4b	.
4a)	.
=225	=225
(2g	.
2c#	.
=226	=226
2e	.
2g)	.
=227	=227
4f#	.
4r	.
(2D [2d	<
=228	=228
*^	*
4d)	1D	.
(4c	.	.
4B	.	.
4d)	.	.
*v	*v	*
=229	=229
4g	.
4r	.
(2C#	.
=230	=230
2E	.
2G)	.
=231	=231
4F#	[
4r	.
4r	.
4e 4a	p
=232	=232
4f# 4a	.
4r	.
4r	.
4g 4a	.
=233	=233
4f# 4a	.
4r	.
4r	.
4e 4a	.
=234	=234
4f# 4a	.
4r	.
4r	.
4g 4a	.
=235	=235
!LO:TX:t=cresc.	!
8f#L	<
8a	.
!LO:TX:t=cresc.	!
8e	<
8a	.
8gL	.
8a	.
8g	.
8a	.
=236	=236
8f#L	.
8a	.
8e	.
8a	.
8gL	.
8a	.
8g	.
8a	.
=237	=237
4f#	f
4r	.
2r	.
=238	=238
4G	f
4r	.
2r	.
=239	=239
4g	f
4r	.
2r	.
=240	=240
4A	f
4r	.
2r	.
=241	=241
4a	p
4r	.
2r	.
=242	=242
1r	.
=243	=243
[1d	.
=244	=244
[1d	.
=245	=245
1d	.
=246	=246
!LO:TX:t=cresc.	!
!LO:TX:t=cresc.	!
(1c	<
=247	=247
1B-	.
=248	=248
1A)	.
=249	=249
4G	pp
2B-	.
(4B-	.
=250	=250
4B-)	.
2B-	.
[4B-	.
=251	=251
4B-	.
[4B	.
4B	.
[4B	.
=252	=252
4B	.
[4B-	.
4B-	.
4B-	.
=253	=253
4B-	.
2B-	.
4B-	.
=254	=254
4A-	.
2A-	.
(4A-	.
=255	=255
!LO:TX:t=cresc.	!
4A)	<
(4A	.
4A)	.
(4A	.
=256	=256
4B)	.
(4B	.
4G)	.
4G	.
=257	=257
(8F#L	p
8A	.
8d	.
8A	.
8dL	.
8A	.
8d	.
8A)	.
=258	=258
(8c#L	.
8A	.
8c#	.
8A	.
8c#L	.
8A	.
8c#	.
8A)	.
=259	=259
(8dL	.
8A	.
8d	.
8A	.
8dL	.
8A	.
8d	.
8A)	.
=260	=260
(8eL	.
8A	.
8e	.
8A	.
8eL	.
8A	.
8e	.
8A)	.
=261	=261
!LO:TX:t=cresc.	!
(8dL	<
8A	.
8d	.
8A	.
8dL	.
8A	.
8d	.
8A)	.
=262	=262
4e	.
4e	.
4e	.
4e	.
=263	=263
4A	.
4d	.
4d	.
4d	.
=264	=264
1D 1d	[
=265	=265
4D 4d	.
4r	.
[2d	.
=266	=266
!LO:TX:t=cresc.	!
2.d	.
8f#	<
8g	.
=267	=267
8eL	.
8f#	.
8d	.
8e	.
8c#L	.
8d	.
8B	.
8c#	.
=268	=268
8AL	.
8B	.
8G	.
8A	.
8F#L	.
8G	.
8E	.
8F#	.
=269	=269
4D	.
4r	[
2r	.
=270	=270
4A	ff
4r	.
2r	.
=271	=271
4D 4d	.
4r	.
2r	.
=272	=272
*k[b-e-]	*
*B-:	*
*M2/4	*
!LO:TX:a:B:t=Andante con moto	!
4F	p
8FL	.
8F	.
=273	=273
4F	.
8FL	.
8F	.
=274	=274
(4F	.
8E-L	.
8F)	.
=275	=275
(8GL	.
[8B-)	.
16B-LL	.
(16A	.
16G	.
16F)	.
=276	=276
8FL	.
4f	.
8f	.
=277	=277
(4a	.
8g#L	.
8a)	.
=278	=278
4.b-	.
8b-	.
=279	=279
(8gL	.
8e	.
8c	.
8A)	.
=280	=280
(8fL	.
8d	.
8B-	.
8G)	.
=281	=281
!LO:TX:t=cresc.	!
(8fL	<
[8B-)	.
16.B-LL	.
(32A	.
16.c	.
32B-)	.
=282	=282
(16.dLL	.
32c)	.
(4B-	.
16.c	.
32A)	[
=283	=283
8B-L	p
8r	.
4r	.
=284	=284
(8aL	.
16b-)	.
16r	.
(8e-L	.
16e)	.
16r	.
=285	=285
8fL	.
8r	.
(32DLLL	.
32E-	.
32F	.
32G	.
32A	.
32B-	.
32c	.
32d)	.
=286	=286
(16.fLL	.
32e-)	.
8d	.
(8aL	.
16d)	.
16r	.
=287	=287
(8gL	<
8c)	.
8d	.
8d	.
=288	=288
16GLL	p
16C	.
16E	.
16C	.
16FLL	.
16C	.
16F	.
16C	.
=289	=289
(16ELL	.
16G	.
16c	.
16e)	.
16gLL	.
16g	.
16g	.
16g	.
=290	=290
16eLL	.
16c	.
16e	.
16c	.
16fLL	.
16c	.
16f	.
16c	.
=291	=291
(16ELL	.
16G	.
16c	.
16e)	.
16gLL	.
16g	.
16g	.
16g	.
=292	=292
16gLL	.
16E-	.
16G	.
16r	.
16r	.
16c	.
16e	.
16r	.
=293	=293
16r	.
16e	.
16g	.
16r	.
4r	.
=294	=294
2r	.
=295	=295
2r	.
=296	=296
16B-LL	pp
16r	.
16G	.
16r	.
16E	.
16r	.
16r	.
16B-	.
=297	=297
16ALL	.
16r	.
16F	.
16r	.
16C	.
16r	.
16r	.
16C	.
=298	=298
16CLL	.
16c	.
16c	.
16c	.
(8.cTL	.
32B	.
32c)	.
=299	=299
16CLL	.
16c	.
16c	.
16c	.
(8.cTL	.
32B	.
32c)	.
=300	=300
16CLL	.
16C 16c	.
16C 16c	.
16C 16c	.
16CLL 16c	.
16C 16c	.
16C 16c	.
16C 16c	.
=301	=301
4D- 4d-	.
(4d-	.
=302	=302
4B-	.
4G)	.
=303	=303
[4E-	sf
8E-J	.
[8FJ	sf
=304	=304
8FL	.
4d-	ff
8d-	.
=305	=305
8d-L	p
8r	.
8r	.
16.e	.
32e	.
=306	=306
8e-L	.
8r	.
8r	.
16.d-	<
32d-	.
=307	=307
(4d	ff
8cL	.
8B-)	.
=308	=308
(8.AL	p
32G	.
32F	.
8EL	.
8F)	.
=309	=309
(8.B-L	.
32A	.
32G	.
8F#L	.
8G)	.
=310	=310
!LO:TX:t=cresc.	!
16ALL	<
(8A	.
32B-	.
32c)	.
16dLL	.
16e	.
16f	.
16g	[
=311	=311
16aLL	p
16a	.
16g	.
16g	.
16fLL	.
16f	.
16e	.
16e	.
=312	=312
(8.cL	.
32B-	.
32A	.
8GL	.
8A)	.
=313	=313
(8.d-L	.
32c	.
32B-	.
8AL	.
8B-)	.
=314	=314
!LO:TX:t=cresc.	!
(8.e-L	<
32d	.
32c)	.
(8.fL	.
32e-	.
32d)	[
=315	=315
[8gL	sf
(16g	.
32f	.
32e-)	.
(8dL	f
8c)	.
=316	=316
2r	.
=317	=317
2r	.
=318	=318
4F	p
(8FL	.
8F)	.
=319	=319
4F	.
(8FL	.
8F)	.
=320	=320
(4F	.
8EL	.
8F)	.
=321	=321
(8GL	.
[8B-)	.
(16B-LL	.
16A	.
16G	.
16F)	.
=322	=322
8FL	.
4f	.
8f	.
=323	=323
(4a	.
8g#L	.
8a)	.
=324	=324
(4.b-	.
8b-)	.
=325	=325
(8gL	.
8e	.
8c	.
8A)	.
=326	=326
(8fL	.
8d	.
8B-	.
8G)	.
=327	=327
!LO:TX:t=cresc.	!
(8fL	.
[8B-)	.
16.B-LL	.
(32A	.
16.c	.
32B-)	.
=328	=328
(16.dLL	.
32c)	.
4B-	.
(16.c	.
32A)	.
=329	=329
8B-L	p
8r	.
4r	.
=330	=330
(8aL	.
16b-)	.
16r	.
(8e-L	.
16e)	.
16r	.
=331	=331
8fL	.
8r	.
(32DLLL	.
32E-	.
32F	.
32G	.
32A	.
32B-	.
32c	.
32d)	.
=332	=332
(16.fLL	.
32e-)	.
8d	.
(16.dLL	.
32c)	.
8B-	.
=333	=333
(qqB-	.
32ALLL	.
32G	.
32A	.
32B-)	.
8c	.
4r	.
=334	=334
(4F	pp
4f)	.
=335	=335
!LO:TX:t=cresc.	!
[2e-	<
=336	=336
16e-LL	.
8G-	.
16G-	.
16FLL	.
8A-	.
16A-	[
=337	=337
(8G-L	p
8F	.
8E-L	.
8D-)	.
=338	=338
!LO:TX:t=cresc.	!
(4C	<
4e-)	.
=339	=339
[2d-	.
=340	=340
16d-LL	.
8d-	.
(16d-	.
16e-LL)	.
8e-	.
16e-	.
=341	=341
(8d-L	.
4D-)	.
8D-	.
=342	=342
(16.FLL	f
32D-)	.
16F	.
16F	.
(16.CLL	.
32E-)	.
16G-	.
16G-	.
=343	=343
8FL	p
(8F	.
8E-	.
8F)	.
=344	=344
(8B-L	.
8G-	.
8F	.
8G-)	.
=345	=345
(8d-L	.
8A-	.
8G	.
8A-)	.
=346	=346
16B-LL	.
8G-	.
[16G-	.
16G-LL	.
16F	.
16G-	.
16G-	.
=347	=347
(8D-L	.
8F	.
8G-	.
8F)	.
=348	=348
(8E-L	.
8G-	.
8A-	.
8G-)	.
=349	=349
!LO:TX:t=cresc.	!
(8FL	<
8A-	.
8B-	.
8A-)	.
=350	=350
(8B-L	.
8b-	.
8a-	.
8g)	.
=351	=351
(8fL	p
8a-	.
8b-	.
8a-)	.
=352	=352
32r	.
(32cc	.
32b	.
32cc	.
32b-LLL	.
32a-	.
32g	.
32f	.
32eLLL	.
32g	.
32f	.
32e	.
32e-LLL	.
32g-	.
32f	.
32e-)	.
=353	=353
8d-L	.
(8d-	.
8e-	.
8d-)	.
=354	=354
32r	.
(32f	.
32e	.
32f	.
32e-LLL	.
32d-	.
32c	.
32B-	.
32ALLL	.
32c	.
32B-	.
32A	.
32A-LLL	.
32c-	.
32B-	.
32A-)	.
=355	=355
8G-J	.
(8g-L	.
8a-	.
8g-)	.
=356	=356
32r	.
(32b-	.
32a	.
32b-	.
32a-LLL	.
32g-	.
32f	.
32e-	.
32dLLL	.
32e-	.
32f	.
32d	.
32e-LLL	.
32f	.
32g-	.
32e-)	.
=357	=357
16G-LL	pp
8B-	.
8B-	.
8c-	.
[16B-	.
=358	=358
!LO:TX:t=cresc.	!
16B-LL	<
8A	.
8A-	.
8G	.
[16G-	.
=359	=359
16G-LL	.
8F	.
8F	.
8E-	.
[16D-	.
=360	=360
16D-LL	.
8C	.
8c	.
8B-	.
16A	.
=361	=361
16ALL	p
16F	.
16A	.
16F	.
16B-LL	.
16F	.
16B-	.
16F	.
=362	=362
(16ALL	.
16c	.
16f	.
16a)	.
16ccLL	.
16cc	.
16cc	.
16cc	.
=363	=363
16aLL	.
16f	.
16a	.
16f	.
16b-LL	.
16f	.
16b-	.
16f	.
=364	=364
(16ALL	.
16c	.
16f	.
16a)	.
16ccLL	.
16B-	.
16B-	.
16B-	.
=365	=365
!LO:TX:t=decresc.	!
!LO:TX:t=decresc.	!
16ALL	.
16A	.
16c	.
16r	.
16r	.
16f	.
16a	.
16r	.
=366	=366
16r	.
16a	.
16cc	.
16r	.
4r	.
=367	=367
2r	.
=368	=368
2r	.
=369	=369
16e-LL	pp
16r	.
16c	.
16r	.
16A	.
16r	.
16r	.
16e-JJ	.
=370	=370
16dLL	.
16r	.
16B-	.
16r	.
16F	.
16r	.
16r	.
16F	.
=371	=371
16FLL	.
16f	.
16f	.
16f	.
(8.fTL	.
32e	.
32f)	.
=372	=372
16FLL	.
16f	.
16f	.
16f	.
(8.fTL	.
32e	.
32f)	.
=373	=373
!LO:TX:t=cresc.	!
16FLL	<
16f	.
16f	.
16f	.
16fLL	.
16F	.
16F	.
16F	[
=374	=374
4G-	f
(4G-	.
=375	=375
4E-	.
4C)	.
=376	=376
(4E-	sf
8FJ)	.
(8FJ	sf
=377	=377
8G-L)	.
4G-	ff
8G-	[
=378	=378
8G-L	p
8r	.
8r	.
16.a	pp
32a	.
=379	=379
8aL	.
8r	.
8r	.
!LO:TX:t=cresc.	!
16.g-	.
32g-	.
=380	=380
(4g	ff
8fL	.
8e-)	.
=381	=381
(16dLL	p
16F)	.
16F	.
16F	.
(16cLL	.
16F	.
16B-	.
16F)	.
=382	=382
(16ALL	.
16F)	.
16F	.
16F	.
(16dLL	.
16F	.
16c	.
16F)	.
=383	=383
16B-LL	.
16B-	.
16B-	.
16B-	.
(16eLL	.
16B-	.
16f	.
16B-)	.
=384	=384
(16gLL	.
16B-)	.
16B-	.
16B-	.
(16B-LL	.
16A	.
16G	.
16F)	.
=385	=385
(16FLL	.
16f	.
16B-	.
16f	.
16cLL	.
16f	.
16B-	.
16f)	.
=386	=386
(16ALL	.
16f	.
16a	.
16f	.
16g#LL	.
16f	.
16g#	.
16f)	.
=387	=387
(16B-LL	.
16b-	.
16f	.
16b-	.
16eLL	.
16b-	.
16f	.
16b-)	.
=388	=388
!LO:TX:t=cresc.	!
8.B-L	<
16B-	.
(16B-LL	.
16A	.
16G	.
16F)	.
=389	=389
8.A-L	.
16A-	.
(16A-LL	.
16G	.
16F#	.
16G)	.
=390	=390
(16GLL	.
8A	.
16B-)	.
(16BLL	.
16c	.
16d	.
16e-)	[
=391	=391
24dLL	sf
24F	.
24F	.
24F	.
24F	.
24F	.
24FLL	sf
24G	.
24G	.
24G	.
24G	.
24G	.
=392	=392
24GLL	sf
24c	.
24c	.
24c	.
24c	.
24c	.
24cLL	sf
24g	.
24g	.
24g	.
24g	.
24g	.
=393	=393
8fL	f
8r	.
4r	.
=394	=394
2r	.
=395	=395
2r	.
=396	=396
(8dL	p
8f	.
8g-	.
8f)	.
=397	=397
(8.gL	.
32f	.
32e-)	.
(8dL	.
8e-)	.
=398	=398
(8GL	.
8B-	.
8c-	.
8B-)	.
=399	=399
!LO:TX:t=cresc.	!
8cL	<
8d	.
16gLL	.
16g	.
16f	.
16e-	.
=400	=400
24dLL	sf
24F	.
24F	.
24F	.
24F	.
24F	.
24FLL	sf
24G	.
24G	.
24G	.
24G	.
24G	.
=401	=401
24GLL	sf
24c	.
24c	.
24c	.
24c	.
24c	.
24cLL	sf
24e-	.
24e-	.
24e-	.
24e-	.
24e-	.
=402	=402
24e-LL	sf
24c	.
24c	.
24c	.
24c	.
24c	.
24cLL	sf
24B-	.
24B-	.
24B-	.
24B-	.
24B-	.
=403	=403
24ALL	ff
24A	.
24A	.
24A	.
24A	.
24A	.
24ALL	.
24A	.
24A	.
24A	.
24A	.
24A	.
=404	=404
8FL 8c	f
8r	.
4r	.
=405	=405
2r	.
=406	=406
16B-LL	pp
8B-	.
8B-	.
8B-	.
[16B-	.
=407	=407
16B-LL	.
8e-	.
8e-	.
8e-	.
[16e-	.
=408	=408
16e-LL	.
8e-	.
(16e-	.
16d-LL)	.
8d-	.
(16d-	.
=409	=409
16cLL)	.
8c	.
(16c	.
16e-LL)	.
8e-	.
16e-	.
=410	=410
(8dL	pp
8B-	.
8A	.
8B-)	.
=411	=411
4.E-	.
8e-	.
=412	=412
(8dL	.
32e-	.
32d	.
32c	.
32B-)	.
(8AL	.
8B-)	.
=413	=413
4.E-	.
8E-	.
=414	=414
8DL	.
8r	.
8r	.
16r	.
16d	.
=415	=415
(8e-L	.
8d)	.
8r	.
16r	.
16d	.
=416	=416
(8e-L	.
8d)	.
8r	.
16r	.
16d	.
=417	=417
8cL	p
8r	.
8c	.
8r	.
=418	=418
8B-L	.
8r	.
4r	.
=419	=419
8r	.
!LO:TX:t=smor -	!
8e-	.
4r	.
=420	=420
8r	.
!LO:TX:t=zan  -	!
8c	.
4r	.
=421	=421
!LO:TX:t=do	!
8B-L	.
8r	.
8FL	pp
8r	.
=422	=422
8DL	.
8r	.
4r	.
=423!|:	=423!|:
*k[f#c#]	*
*D:	*
*M3/4	*
!LO:TX:a:B:t=Allegro	!
4r	.
=424	=424
(2.D	p
=425	=425
2.G)	.
=426	=426
4E	.
(4E	.
4F#)	.
=427	=427
4A	.
4r	.
4r	.
=428	=428
(2.A	<
=429	=429
2B)	>
4B	]
=430	=430
4A	.
(4A	.
4B)	.
=431!|:	=431!|:
4A	.
4r	.
=	=
4r	.
=432	=432
[2.B	.
=433	=433
(4B	.
4A	.
4G)	.
=434	=434
4F#	.
(4D	.
4c)	.
=435	=435
2c	.
4r	.
=436	=436
(2.G	pp
=437	=437
2.c)	.
=438	=438
4A	.
(4A	.
4B)	.
=439	=439
4d	.
4r	.
4d	sf
=440	=440
4d	.
4r	.
4A	sf
=441	=441
4A	.
4r	.
4A	sf
=442	=442
4A	.
4r	.
4dd	sf
=443	=443
!LO:TX:t=cresc.	!
[2.d [2.dd	<
=444	=444
[2.d [2.dd	.
=445	=445
2d 2dd	p
4r	.
=446	=446
2.r	.
=447	=447
2.r	.
=448	=448
(2.B	<
=449	=449
4A#)	>
4r	]
4r	.
=450	=450
2.r	.
=451	=451
2.r	.
=452	=452
[2.A	<
=453	=453
4A	[
4r	.
4A	.
=454	=454
(4A#	>
4B)	.
4G	]
=455	=455
(4E	>
4A)	.
4G	]
=456	=456
4F#	.
4r	.
4r	.
=457	=457
2.r	.
=458	=458
4r	.
4r	.
4A	p
=459	=459
(4A	.
4B)	.
4G	.
=460	=460
(4G	.
[2F#)	.
=461	=461
2.F#	.
=462	=462
!LO:TX:t=cresc.	!
[2.f#	.
=463	=463
(2.f#	.
=464	=464
4g)	.
4r	.
4a	sf
=465	=465
4g	.
4r	.
4f	sf
=466	=466
(4e	.
4f#)	.
4d	sf
=467	=467
(4c#	.
4d)	.
4B	sf
=468	=468
(4A	.
4B)	.
4G	sf
=469	=469
(4F#	.
4G)	.
4G	sf
=470	=470
(2.F#	.
=471	=471
2.B)	.
=472	=472
[2.A	.
=473	=473
(2A	>
4A#)	]
=474	=474
!LO:TX:t=cresc.	!
(4B	.
4A#	.
4B	.
=475	=475
4G#	.
4F#	.
4G#)	.
=476	=476
[2.A	p
=477	=477
2A	.
(4g	.
=478	=478
4f#)	.
(4b	.
4a	.
=479	=479
4g	.
4f#	.
4e	.
=480	=480
4d)	.
(4g	.
4f#	.
=481	=481
4e	.
4d	.
4g	.
=482	=482
!LO:TX:t=cresc.	!
!LO:TX:t=cresc.	!
4f#)	<
4d	.
4d	.
=483	=483
4d	.
4d	.
4A	.
=484	=484
(2.c#	sfp
=485	=485
4d)	.
4r	.
=:|!|:	=:|!|:
*k[b-]	*
*d:	*
4r	.
=486	=486
(2.F	p
=487	=487
2.E	.
=488	=488
2.D)	sf
=489	=489
2.C#	.
=490	=490
(2.F	.
=491	=491
2.E	.
=492	=492
2.D	sf
=493	=493
2.C#)	.
=494	=494
!LO:TX:t=cresc.	!
(2.F	<
=495	=495
2.A)	.
=496	=496
4c	p
4r	.
4d	.
=497	=497
4c	.
4r	.
=:|!	=:|!
4r	.
=498	=498
(2.E-	p
=499	=499
2.D	.
=500	=500
2.C	sf
=501	=501
2.D)	.
=502	=502
(2.B-	.
=503	=503
2.A	.
=504	=504
2.G	sf
=505	=505
2.F)	.
=506	=506
(2.f	.
=507	=507
2.e	.
=508	=508
2.d	sf
=509	=509
2.c#)	.
=510	=510
(2.d	sf
=511	=511
2.c#)	.
=512	=512
!LO:TX:t=cresc.	!
(2.d	<
=513	=513
2.D)	.
=514	=514
4E	p
4r	.
4r	.
=515	=515
2.r	.
=516	=516
2.r	.
=517	=517
2.r	.
=518	=518
!LO:TX:t=pizz.	!
4g	pp
4r	.
4r	.
=519	=519
4e	.
4r	.
4r	.
=520	=520
4c#	.
4r	.
4r	.
=521	=521
4A	.
4r	.
4r	.
=522||	=522||
*k[f#c#]	*
*D:	*
!LO:TX:t=arco	!
(2.d	p
=523	=523
2.G)	.
=524	=524
4E	.
(4E	.
4F#)	.
=525	=525
4A	.
4r	.
4r	.
=526	=526
(2.d	<
=527	=527
2B)	>
4B	]
=528	=528
4A	.
(4A	.
4B)	.
=529	=529
4A	.
4r	.
4r	.
=530	=530
(2A	.
4A#)	.
=531	=531
2B	.
4B	.
=532	=532
4A	.
4A	.
4A	.
=533	=533
(4d	.
4c#)	.
4r	.
=534	=534
(2.A	<
=535	=535
2.d)	[
=536	=536
4c#	.
(4c#	.
4e#)	.
=537	=537
4f#	.
4r	.
[4f#	.
=538	=538
4f#	.
(4e	.
4d#	.
=539	=539
4e	.
4f#	.
4g	.
=540	=540
4a	.
4b	.
4cc)	.
=541	=541
2f#	.
4r	.
=542	=542
(2d	pp
4d#)	.
=543	=543
2.e	.
=544	=544
(4A	.
4d)	.
4d	.
=545	=545
(4g	.
4f#)	.
4d	sf
=546	=546
4d	.
4r	.
4g	sf
=547	=547
4a	.
4r	.
4a	sf
=548	=548
4a	.
4r	.
4d 4dd	sf
=549	=549
!LO:TX:t=cresc.	!
[2.d [2.dd	<
=550	=550
[2.d [2.dd	.
=551	=551
2d 2dd	p
4r	.
=552	=552
2.r	.
=553	=553
2.r	.
=554	=554
(2.B	<
=555	=555
4A#)	[
4r	.
4r	.
=556	=556
2.r	.
=557	=557
2.r	.
=558	=558
[2.A	<
=559	=559
4A	[
4r	.
4A	.
=560	=560
(4A#	>
4B)	]
4G	.
=561	=561
(4E	>
4A)	]
4G	.
=562	=562
4F#	.
4r	.
4r	.
=563	=563
2.r	.
=564	=564
4r	.
4r	.
4A	p
=565	=565
(4A	.
4B)	.
4G	.
=566	=566
(4G	.
[2F#)	.
=567	=567
2.F#	.
=568	=568
!LO:TX:t=cresc.	!
[2.f#	<
=569	=569
2.f#	.
=570	=570
4g	[
4r	.
4a	sf
=571	=571
4g	.
4r	.
4f	sf
=572	=572
(4e	.
4f#)	.
4d	sf
=573	=573
(4c#	.
4d)	.
4B	sf
=574	=574
(4A	.
4B)	.
4G	sf
=575	=575
(4F#	.
4G)	.
4G	sf
=576	=576
(2.F#	.
=577	=577
2.B)	.
=578	=578
[2.A	<
=579	=579
(2A	>
4A#)	]
=580	=580
!LO:TX:t=cresc.	!
(4B	<
4A#	.
4B	.
=581	=581
4G#	.
4F#	.
4G#)	.
=582	=582
[2.A	p
=583	=583
2A	.
(4g	.
=584	=584
4f#)	.
(4b	.
4a	.
=585	=585
4g	.
4f#	.
4e	.
=586	=586
4d)	.
(4g	.
4f#	.
=587	=587
4e	.
4d	.
4g)	.
=588	=588
!LO:TX:t=cresc.	!
4f#	<
4d	.
4d	.
=589	=589
4d	.
4d	.
4A	.
=590	=590
(2.c#	sfp
=591	=591
4d)	.
4r	.
=	=
*M6/8	*
!LO:TX:a:B:t=Presto	!
4r	.
=592!|:	=592!|:
2.r	.
=593	=593
2.r	.
=594	=594
2.r	.
=595	=595
2.r	.
=596	=596
2.r	.
=597	=597
2.r	.
=598	=598
2.r	.
=599	=599
2.r	.
=600	=600
4r	.
8r	.
[4.f#	<
=601	=601
(4.f#	>
4g)	]
8r	.
=602	=602
4r	.
8r	.
(4.g	<
=603	=603
4.a	>
4b)	]
8r	.
=604	=604
4r	.
8r	.
(4.d	.
=605	=605
4.e	.
4f#)	.
8d	.
=606	=606
4B	.
8b	.
4a	.
8g	.
=607	=607
(4.g	.
8f#L)	.
(8A	.
8G#)	.
=608	=608
(8AL	.
8B)	.
8c	.
8cL	.
8c	.
8c	.
=609	=609
(4.c	sf
8BL)	.
(8c	.
8B)	.
=610	=610
(8cL	.
8d)	.
8e	.
8eL	.
8e	.
8e	.
=611	=611
(4.e	sf
4d)	.
8r	.
=612	=612
2.r	.
=613	=613
(4.c#	sf
4a)	.
8r	.
=614	=614
(8c#L	sf
8a)	.
8r	.
(8c#L	sf
8a)	.
8r	.
=615	=615
(8c#L	sf
[4a)	.
4a	.
8a	.
=616	=616
4b	.
8B	.
4A	.
8G	.
=617	=617
4F#	.
8r	.
4f#	p
8r	.
=618	=618
4g	.
8r	.
4c#	.
8r	.
=619	=619
4d	.
8r	.
4B	.
8r	.
=620	=620
4G	.
8r	.
4A	.
8r	.
=621	=621
8DL	.
8A	.
8A	.
8dL	.
8A	.
8A	.
=622	=622
8eL	.
8A	.
8A	.
8eL	.
8A	.
8A	.
=623	=623
8dL	.
8A	.
8A	.
8BL	.
8d	.
8d	.
=624	=624
8BL	.
8d	.
8d	.
8EL	.
8G	.
8G	.
=625	=625
8F#L	.
(8D	.
8C#	.
4D)	.
8B	.
=626	=626
4c#	.
8d	.
4F#	.
8A	.
=627	=627
8dL	.
(8D	.
8C#	.
4D)	.
8B	.
=628	=628
4c#	.
8d	.
4F#	.
8A	.
=629	=629
8dL	.
!LO:TX:t=cresc.	!
(8D	<
8C#	.
4D)	.
8r	.
=630	=630
8r	.
(8F#	.
8E#	.
4F#)	.
8r	.
=631	=631
8r	.
(8A	.
8G#	.
4A)	.
8r	[
=632	=632
(2.A	sf
=633	=633
4G#)	.
8r	.
(4.g#	p
=634	=634
4.a	.
4.f	.
=635	=635
4.e	.
4.G#	.
=636	=636
4.A)	.
(4.A	sf
=637	=637
4G#)	.
8r	.
(4.d	.
=638	=638
4.c	.
4.G#	.
=639	=639
4.A	.
4.D	.
=640	=640
4.C)	.
(4.A	sf
=641	=641
8G#L)	.
(8G#	.
8A	.
8G#L)	.
8A	.
8G#	.
=642	=642
8BL	sf
(8A#	.
8B	.
8A#L)	.
8B	.
8A#	.
=643	=643
8dL	sf
(8c#	.
8d	.
8c#L)	.
8d	.
8c#	.
=644	=644
!LO:TX:t=cresc.	!
(8eL	<
8d#)	.
8d#	.
(8f#L	.
8e)	.
8e	.
=645	=645
(8gL	.
8f#)	.
8f#	.
(8aL	.
8g#)	.
8g#	.
=646	=646
(8bL	.
8a#)	.
8a#	.
(8cc#L	.
8b)	.
8b	.
=647	=647
4a	p
8r	.
(4.a	.
=648	=648
4b)	.
8r	.
(4.b	.
=649	=649
8aL)	.
8cc#	.
8cc#	.
8g#L	.
8g#	.
8g#	.
=650	=650
8aL	.
8a	.
8g	.
8f#L	.
8f#	.
8f	.
=651	=651
4e	.
8r	.
4.r	.
=652	=652
2.r	.
=653	=653
2.r	.
=654	=654
2.r	.
=655	=655
8r	.
8c#	p
8c#	.
8c#L	.
8c#	.
8c#	.
=656	=656
8dL	.
8d	.
8d	.
8dL	.
8d	.
8d	.
=657	=657
8c#L	.
8c#	.
8c#	.
8c#L	.
8c#	.
8c#	.
=658	=658
8dL	.
8d	.
8d	.
8dL	.
8d	.
8d	.
=659	=659
8c#L	.
8A	.
8A	.
8AL	.
8A	.
8A	.
=660	=660
8BL	.
8B	.
8B	.
8c#L	.
8c#	.
8c#	.
=661	=661
4d	.
8r	.
4r	.
8r	.
=662	=662
2.r	.
=663	=663
8r	.
8A	.
8A	.
!LO:TX:t=cresc.	!
8c#L	<
8A	.
8A	.
=664	=664
8dL	.
8A	.
8A	.
8eL	.
8A	.
8A	.
=665	=665
8dL	.
8A	.
8A	.
8dL	.
8A	.
8A	.
=666	=666
8c#L	.
8A	.
8A	.
8cL	.
8A	.
8A	.
=667	=667
4B	sf
8r	.
4.r	.
=668	=668
4e	sf
8r	.
4r	.
8r	.
=669	=669
4e	sf
8r	.
4r	.
8r	.
=670	=670
4r	.
8r	.
8EL	ff
8E	.
8E	.
=671	=671
(4F	p
8C	.
4F	.
8C)	.
=672	=672
(4G	.
8C	.
4G	.
8C)	.
=673	=673
(4F	.
8C	.
4F	.
8C)	.
=674	=674
(4G	.
8C	.
4G	.
8C)	.
=675	=675
(4F	.
8C	.
4F	.
8C)	.
=676	=676
(4G	.
8C	.
4G	.
8C)	.
=677	=677
4F	.
8r	.
4r	.
8r	.
=678	=678
(2.D#	ff
=679	=679
8EL)	.
8a	.
8a	.
8aL	.
8a	.
8a	.
=680	=680
8aL	.
8a	.
8a	.
8bL	.
8b	.
8b	.
=681	=681
4a	.
8c	pp
4f	.
8r	.
=682	=682
(2.E-	ff
=683	=683
4D)	.
8r	.
4d	.
8r	.
=684	=684
4r	.
8r	.
4d#	.
8r	.
=685	=685
4r	.
8r	.
4e	.
8r	.
=686	=686
4r	.
8r	.
4e	.
8r	.
=687	=687
4A	.
8r	.
8r	.
8b	.
8b	.
=688	=688
4a	.
8r	.
8r	.
8b	.
8b	.
=689	=689
4a	.
8r	.
8r	.
8b	.
8b	.
=690	=690
4a	.
8r	.
8r	.
8B	.
8B	.
=691	=691
4A	.
8r	.
8r	.
8d	.
8d	.
=692	=692
4c#	.
8r	.
8r	.
8d	.
8d	.
=693	=693
4c#	.
8r	.
4.g	p
=694	=694
4.f#	.
4.e	.
=695	=695
!LO:TX:t=cresc.	!
4.d	<
4.c#	.
=696	=696
4.B	.
4.A	.
=697	=697
4.G	.
4.F#	.
=698	=698
4.F	.
4.E	.
=699	=699
[2.E	f
=700	=700
2.E	.
=701	=701
[2.E	f
=702	=702
2.E	.
=703	=703
2.E	f
=704	=704
2.e	f
=705	=705
4.e	f
4r	.
8r	.
=706	=706
2.r	.
=707	=707
4r	.
8r	.
8r	.
(8B	p
8c	.
=708	=708
4B)	.
8r	.
8r	.
(8A	.
8B	.
=709	=709
4A)	.
8r	.
8r	.
(8G	.
8A)	.
=710	=710
4G	.
8r	.
4r	.
8r	.
=711	=711
4F#	.
8r	.
4.r	.
=712:|!	=712:|!
4E	f
8r	.
4r	.
8r	.
=713	=713
2.r	.
=714	=714
4r	.
8r	.
8r	.
(8B	p
8c)	.
=715	=715
4B	.
8r	.
8r	.
(8A	.
8B	.
=716	=716
4A)	.
8r	.
8r	.
(8G	.
8A)	.
=717	=717
4G	.
8r	.
4r	.
8r	.
=718	=718
8r	.
(8a	.
8b	.
4a)	.
8r	.
=719	=719
8r	.
(8g	.
8a	.
4g)	.
8r	.
=720	=720
8r	.
(8f#	.
8g	.
4f#)	.
8r	.
=721	=721
2.r	.
=722	=722
2.r	.
=723	=723
2.r	.
=724	=724
8r	.
(8cc	pp
8dd	.
4cc)	.
8r	.
=725	=725
8r	.
(8b	.
8cc	.
4b)	.
8r	.
=726	=726
8r	.
(8a	.
8b	.
8aL)	.
(8G	f
8F#	.
=727	=727
4G)	.
8r	.
[4.c	sf
=728	=728
2.c	.
=729	=729
8GL	.
(8g	.
8f#	.
8gL)	.
8e	.
8d#	.
=730	=730
8eL	.
8a	.
8g	.
8f#L	.
8e	.
8d	.
=731	=731
4g	.
8r	.
4.r	.
=732	=732
2.r	.
=733	=733
2.r	.
=734	=734
2.r	.
=735	=735
4f#	p
8r	.
[4.b	.
=736	=736
[2.b	.
=737	=737
(4.b	.
[4.a)	.
=738	=738
2.a	.
=739	=739
4e	.
8r	.
[4.a	.
=740	=740
[2.a	.
=741	=741
(4.a	.
[4.g)	.
=742	=742
2.g	.
=743	=743
2.r	.
=744	=744
(2.G	sf
=745	=745
8F#L)	.
(8f#	.
8e#	.
8f#L)	.
8f#	.
8e	.
=746	=746
8d#L	.
8d#	.
8c#	.
8BL	.
8c#	.
8d#	.
=747	=747
4e	.
8r	.
4r	.
8r	.
=748	=748
(2.E	sf
=749	=749
8DL)	.
8d	.
8c#	.
8dL	.
8d	.
8c#	.
=750	=750
8BL	.
8B	.
8c#	.
8dL	.
8d	.
8d	.
=751	=751
4c#	.
8r	.
4r	.
8r	.
=752	=752
8C#	.
8C#	.
8C#	.
8C#L	.
8C#	.
8C#	.
=753	=753
8C#L	.
8C#	.
8C#	.
8C#L	.
8C#	.
8C#	.
=754	=754
8C#L	.
8C#	.
8C#	.
8C#L	.
8C#	.
8C#	.
=755	=755
4F#	.
8r	.
4.r	.
=756	=756
8F#L	sf
8F#	.
8F#	.
8F#L	.
8F#	.
8F#	.
=757	=757
8F#L	.
8F#	.
8F#	.
8F#L	.
8F#	.
8F#	.
=758	=758
8F#L	.
8F#	.
8F#	.
8F#L	.
8F#	.
8F#	.
=759	=759
4a	.
8r	.
[4.cc	sf
=760	=760
2.cc	.
=761	=761
4a	.
8r	.
[4.cc	sf
=762	=762
4.cc	.
4b	.
8r	.
=763	=763
4B	.
8r	.
[4.e#	ff
=764	=764
(2.e#	.
=765	=765
8f#L)	p
8B	.
8B	.
8BL	.
8B	.
8B	.
=766	=766
8A#L	.
8A#	.
8A#	.
8A#L	.
8A#	.
8A#	.
=767	=767
4B	.
8r	.
[4.B	ff
=768	=768
2.B	.
=769	=769
8BL	.
8B	.
8B	.
8BL	.
8B	.
8B	.
=770	=770
8A#L	.
8A#	.
8A#	.
8A#L	.
8A#	.
8A#	.
=771	=771
4B	.
8r	.
[4.F#	pp
=772	=772
[2.F#	.
=773	=773
[2.F#	.
=774	=774
[2.F#	.
=775	=775
4F#	.
8r	.
4r	.
8r	.
=776	=776
8dL	.
8c	.
8B	.
8EL	.
8E	.
8E	.
=777	=777
[2.E	pp
=778	=778
[2.E	.
=779	=779
[2.E	.
=780	=780
[2.E	.
=781	=781
4E	.
8r	.
4r	.
8r	.
=782	=782
8c#	.
8B	.
8A	.
8F#L	.
8G	.
8A	.
=783	=783
4B	.
8r	.
[4.D	pp
=784	=784
[2.D	.
=785	=785
[2.D	.
=786	=786
[2.D	.
=787	=787
4.D	.
[4.G	.
=788	=788
[2.G	.
=789	=789
[2.G	.
=790	=790
2.G	.
=791	=791
[2.E	.
=792	=792
[2.E	.
=793	=793
[2.E	.
=794	=794
[2.E	.
=795	=795
[2.E	.
=796	=796
[2.E	.
=797	=797
[2.E	.
=798	=798
4E	.
[8e	.
4e	.
8e	.
=799	=799
!LO:TX:t=smor    -         -       -               -	!
[2.e	.
=800	=800
4e	.
[8e	.
4e	.
8e	.
=801	=801
!LO:TX:t=zan	!
[2.d	.
=802	=802
4d	.
[8d	.
!LO:TX:t=-           -             -        -        -      -      do	!
!LO:TX:t=-           -             -        -        -      -      do	!
4d	.
(8d	.
=803	=803
[2.A)	.
=804	=804
4A	.
[8A	.
4A	.
8A	.
=805	=805
[2.G	pp
=806	=806
4G	.
[8G	.
4G	.
(8G	.
=807	=807
8GL)	.
(8A	ff
8G#	.
8AL)	.
(8A	.
8G#	.
=808	=808
8AL)	.
8B	.
8A	.
8GL	.
8F#	.
8E	.
=809	=809
4D	f
8r	p
4r	.
8r	.
=810	=810
2.r	.
=811	=811
2.r	.
=812	=812
2.r	.
=813	=813
2.r	.
=814	=814
2.r	.
=815	=815
2.r	.
=816	=816
2.r	.
=817	=817
4r	.
8r	.
[4.f#	<
=818	=818
(4.f#	>
4g)	]
8r	.
=819	=819
4r	.
8r	.
(4.g	<
=820	=820
4.a	>
4b)	]
8r	.
=821	=821
4r	.
8r	.
!LO:TX:t=cresc.	!
(4.d	<
=822	=822
4.e)	sf
4f#)	.
8d	.
=823	=823
8BL	.
8b	.
8b	.
8bL	.
8a	.
8g	.
=824	=824
(4.g	.
8f#L)	.
(8A	.
8G#)	.
=825	=825
(8AL	.
8B)	.
8c	.
8cL	.
8c	.
8c	.
=826	=826
(4.c	sf
8BL)	.
(8c	.
8B)	.
=827	=827
(8cL	.
8d)	.
8e	.
8eL	.
8e	.
8e	.
=828	=828
(4.e	sf
4d)	.
8r	.
=829	=829
2.r	.
=830	=830
(4.c#	sf
4a)	.
8r	.
=831	=831
(8c#L	sf
8a)	.
8r	.
(8c#L	sf
8a)	.
8r	.
=832	=832
(8c#L	.
[4a)	sf
4a	.
8a	.
=833	=833
4b	.
8B	.
4A	.
8G	.
=834	=834
4F#	.
8r	.
4r	.
8r	.
=835	=835
2.r	.
=836	=836
4r	.
8r	.
8BL	.
8d	.
8d	.
=837	=837
8BL	.
8d	.
8d	.
8c#L	.
8e	.
8e	.
=838	=838
4d	.
8r	.
4F#	p
8r	.
=839	=839
!LO:TX:t=cresc.	!
4G	<
8r	.
4C#	.
8r	.
=840	=840
4D	.
8r	.
4a	.
8dd	.
=841	=841
(8ddL	.
8cc#)	.
8b	.
(8bL	f
8a)	.
8g	.
=842	=842
8f#L	.
8g	.
8a	.
8bL	.
8B	.
8B	.
=843	=843
4A	[
8r	.
(4.c#	p
=844	=844
4.d	.
4.e	.
=845	=845
4.f#	.
4.g	.
=846	=846
4.f#)	.
(4.d	sf
=847	=847
4c#)	.
8r	.
(4.g	.
=848	=848
4.f#	.
4.c#	.
=849	=849
4.d	.
4.G)	.
=850	=850
4.F	.
(4.G#	sf
=851	=851
8AL)	.
(8c#	.
8d	.
8c#L)	.
8d	.
8c#	.
=852	=852
8eL	sf
(8d#	.
8e	.
8d#L)	.
8e	.
8d#	.
=853	=853
8gL	sf
(8f#	.
8g	.
8f#L)	.
8g	.
8f#	.
=854	=854
(8aL	.
8g#)	.
8g#	.
(8bL	.
8a#)	.
8a#	.
=855	=855
!LO:TX:t=cresc.	!
(8ccL	<
8b)	.
8b	.
(8ddL	.
8cc#)	.
8cc#	.
=856	=856
8eeL	.
8dd	.
8dd	.
8ff#L	.
8ee	.
8ee	.
=857	=857
4dd	p
8r	.
(4.dd	.
=858	=858
4ee)	.
8r	.
(4.ee	.
=859	=859
8ddL)	.
8f#	.
8f#	.
8c#L	.
8c#	.
8c#	.
=860	=860
8dL	.
8dd	.
8cc	.
8bL	.
8b	.
8b-	.
=861	=861
4a	.
8r	.
4r	.
8r	.
=862	=862
2.r	.
=863	=863
2.r	.
=864	=864
2.r	.
=865	=865
8dL	.
8d	.
8d	.
8dL	.
8d	.
8d	.
=866	=866
8eL	.
8e	.
8e	.
8eL	.
8e	.
8e	.
=867	=867
8dL	.
8f#	.
8f#	.
8f#L	.
8f#	.
8f#	.
=868	=868
8gL	.
8g	.
8g	.
8gL	.
8g	.
8g	.
=869	=869
8f#L	.
8d	.
8d	.
8dL	.
8d	.
8d	.
=870	=870
8eL	.
8e	.
8e	.
8f#L	.
8f#	.
8f#	.
=871	=871
4g	.
8r	.
4r	.
8r	.
=872	=872
2.r	.
=873	=873
8r	.
8d	.
8d	.
!LO:TX:t=cresc.	!
8f#L	<
8d	.
8d	.
=874	=874
8f#L	.
8d	.
8d	.
8aL	.
8d	.
8d	.
=875	=875
8gL	.
8d	.
8d	.
8gL	.
8d	.
8d	.
=876	=876
8f#L	.
8d	.
8d	.
8fL	.
8d	.
8d	.
=877	=877
4e	f
8r	.
4r	.
8r	.
=878	=878
4A	f
8r	.
4r	.
8r	.
=879	=879
4c#	f
8r	.
4r	.
8r	.
=880	=880
4r	.
8r	.
8AL	ff
8A	.
8A	.
=881	=881
(4B-	f
8F	p
4B-	.
8F)	.
=882	=882
(4c	.
8F	.
4c	.
8F)	.
=883	=883
(4B-	.
8F	.
4B-	.
8F)	.
=884	=884
(4c	.
8F	.
4c	.
8F)	.
=885	=885
(4B-	.
8F	.
4B-	.
8F)	.
=886	=886
(4c	.
8F	.
4c	.
8F)	.
=887	=887
4B-	.
8r	.
4r	.
8r	.
=888	=888
(2.G#	ff
=889	=889
8AL)	.
8d	.
8d	.
8dL	.
8d	.
8d	.
=890	=890
8dL	.
8d	.
8d	.
8eL	.
8e	.
8e	.
=891	=891
4d	.
8f	pp
4b-	.
8r	.
=892	=892
(2.A-	ff
=893	=893
4G)	.
8r	.
4r	.
8r	.
=894	=894
4G#	.
8r	.
4r	.
8r	.
=895	=895
4A	.
8r	.
4r	.
8r	.
=896	=896
4A	.
8r	.
4r	.
8r	.
=897	=897
4D	.
8r	.
8r	.
8e	.
8e	.
=898	=898
4d	.
8r	.
8r	.
8e	.
8e	.
=899	=899
4d	.
8r	.
8r	.
8ee	.
8ee	.
=900	=900
4dd	.
8r	.
8r	.
8e	.
8e	.
=901	=901
4d	.
8r	.
8r	.
8g	.
8g	.
=902	=902
4f#	.
8r	.
8r	.
8g	.
8g	.
=903	=903
4f#	p
8r	.
(4.cc	.
=904	=904
4.b	.
4.a	.
=905	=905
!LO:TX:t=cresc.	!
4.g	<
4.f#	.
=906	=906
4.f#	.
4.f#	.
=907	=907
4.c	.
4.B	.
=908	=908
4.A#	.
4.A)	.
=909	=909
[2.A	f
=910	=910
2.A	.
=911	=911
[2.A	f
=912	=912
2.A	.
=913	=913
2.A	f
=914	=914
2.A	f
=915	=915
2.G	f
=916	=916
2.G	f
=917	=917
2.E	p
=918	=918
2.e	.
=919	=919
[2.d	.
=920	=920
4.d	.
4.D	.
=921	=921
2.C#	.
=922	=922
2.c#	.
=923	=923
[2.B	.
=924	=924
4.B	.
(4.B-	.
=925	=925
!LO:TX:t=cresc.	!
4.A)	<
(4.C#	.
=926	=926
4.D	.
4.D#	.
=927	=927
4.E	.
4.E#	.
=928	=928
4.F#)	.
8F#L	.
8F#	.
8F#	.
=929	=929
8GL	.
8G	.
8G	.
8EL	.
8E	.
8E	.
=930	=930
8F#L	.
(8f#	.
8e	.
8f#L)	.
8F#	.
8D	.
=931	=931
2.GT	f
=932	=932
2.gT	.
=933	=933
8f#L	.
(8d	.
8c#	.
8dL)	.
(8B	.
8A#	.
=934	=934
8BL)	.
(8A	.
8G	.
8AL)	.
(8E	.
8D#)	.
=935	=935
8EL	.
8F#	.
8G	.
8AL	.
8B	.
8c#	.
=936	=936
8dL	.
8e	.
8f#	.
4g	.
8r	.
=937	=937
8r	.
(8f#	.
8e#	.
8f#L)	.
(8d	.
8c#	.
=938	=938
8dL)	.
(8B	.
8A#	.
8BL)	.
(8G	.
8F#	.
=939	=939
8GL)	.
8A	.
8B	.
8c#L	.
8d	.
8e	.
=940	=940
8f#L	.
8g	.
8a	.
8bL	.
8cc	.
8cc#	.
=941	=941
4dd	.
8r	.
4D	f
8r	.
=942	=942
[2.d	sf
=943	=943
4.d	.
4c#	.
8B	.
=944	=944
4A	.
8G	.
4F#	.
8E	.
=945	=945
4D	.
8r	.
4F#	.
8r	.
=946	=946
[2.f#	sf
=947	=947
4.f#	.
4e	.
8d	.
=948	=948
4c#	.
8B	.
4A	.
8G	.
=949	=949
4F#	ff
8r	.
4f# 4a	.
8r	.
=950	=950
4r	.
8r	.
4G 4d 4b	.
8r	.
=951	=951
4r	.
8r	.
4A 4f#	.
8r	.
=952	=952
4r	.
8r	.
4A 4g	.
8r	.
=953	=953
4A 4f#	.
8r	.
4r	.
8r	.
=954	=954
(2.G	p
=955	=955
4F#)	.
8r	.
4r	.
8r	.
=956	=956
(2.g	.
=957	=957
4f#)	.
8r	.
4r	.
8r	.
=958	=958
2.r	.
=959	=959
4r	.
8r	.
8r	.
(8D	pp
8C#	.
=960	=960
4D)	.
8r	.
8r	.
(8D	.
8C#	.
=961	=961
4D)	.
8r	.
4r	.
8r	.
=962	=962
4r	.
8r	.
8r	.
==	==
*-	*-
